X:23
T:Duke of York’s March (in C). JJo.023
S:J.Jones MS,1801,N.Shrops.
A:N Shropshire
Z:Neil Brookes 2006
M:4/4
L:1/8
Q:1/4=120
K:C
C2C>C E2E>E|.G.E.G.EC2G2|.c.G.c.G cGEC|G2G>GG2z2|!
g3ec2c2|d2 d>f e2 z g|f3e ecfe|d2d>dd2z2:|!
|:G2G>G .Gdef|G2G>G Gceg|fd.d.d ec.c.c|ag.f.e e2d2|!
“^pia”c3e/d/ cGAB|BA A4 B/c/d/e/|”^for”.f.f.e.e .d.d.c.c|d2d>d d2z2|!
C2C>C E2E>E|.G.E.G.EC2f2|egge fdcB|c2c>c c2″^Trio”:|

